material/.icons/material/google-circles-communities.svg

<svg xmlns="http://www.w3.org/2000/svg" viewBox="0 0 24 24"><path d="M15 12c-1.11 0-2 .89-2 2a2 2 0 002 2 2 2 0 002-2 2 2 0 00-2-2m-3 8a8 8 0 01-8-8 8 8 0 018-8 8 8 0 018 8 8 8 0 01-8 8m0-18A10 10 0 002 12a10 10 0 0010 10 10 10 0 0010-10A10 10 0 0012 2m2 7a2 2 0 00-2-2c-1.11 0-2 .89-2 2a2 2 0 002 2 2 2 0 002-2m-5 3a2 2 0 00-2 2 2 2 0 002 2 2 2 0 002-2 2 2 0 00-2-2z"/></svg>

<?xml version="1.0" encoding="UTF-8"?><!DOCTYPE svg PUBLIC "-//W3C//DTD SVG 1.1//EN" "http://www.w3.org/Graphics/SVG/1.1/DTD/svg11.dtd"><svg xmlns="http://www.w3.org/2000/svg" xmlns:xlink="http://www.w3.org/1999/xlink" version="1.1" id="mdi-google-circles-communities" width="24" height="24" viewBox="0 0 24 24"><path d="M15,12C13.89,12 13,12.89 13,14A2,2 0 0,0 15,16A2,2 0 0,0 17,14C17,12.89 16.1,12 15,12M12,20A8,8 0 0,1 4,12A8,8 0 0,1 12,4A8,8 0 0,1 20,12A8,8 0 0,1 12,20M12,2A10,10 0 0,0 2,12A10,10 0 0,0 12,22A10,10 0 0,0 22,12A10,10 0 0,0 12,2M14,9C14,7.89 13.1,7 12,7C10.89,7 10,7.89 10,9A2,2 0 0,0 12,11A2,2 0 0,0 14,9M9,12A2,2 0 0,0 7,14A2,2 0 0,0 9,16A2,2 0 0,0 11,14C11,12.89 10.1,12 9,12Z" /></svg>
